resources/vendors/cashu/icon-1504703882.svg

<?xml version="1.0" encoding="UTF-8"?>
<!DOCTYPE svg  PUBLIC '-//W3C//DTD SVG 1.1//EN'  'http://www.w3.org/Graphics/SVG/1.1/DTD/svg11.dtd'>
<svg version="1.1" viewBox="0 0 230 200" xmlns="http://www.w3.org/2000/svg" xmlns:xlink="http://www.w3.org/1999/xlink">
<defs>
<path id="c" d="m31.03 22.62c-2 0.1-3.11 0.15-3.33 0.16-3.2 0.17-6.26 1.01-9.03 2.39-2.77 1.39-5.29 3.32-7.34 5.65-2.07 2.35-3.71 5.09-4.8 8.08s-1.62 6.23-1.47 9.55c0.53 11.98 4.77 107.76 5.3 119.73 0.14 2.97 0.88 5.69 2.15 8.06 1.24 2.37 2.95 4.4 5.03 5.98s4.51 2.72 7.16 3.35c2.62 0.61 5.49 0.71 8.45 0.2 1.69-0.29 10.12-1.76 25.29-4.39l33.3-5.77c14.65-2.53 22.79-3.94 24.42-4.22-0.94-0.11-1.86-0.25-2.77-0.41-0.91-0.17-1.8-0.36-2.67-0.58-0.88-0.22-1.74-0.47-2.58-0.76-0.85-0.28-1.66-0.58-2.48-0.94-1.65-0.69-3.21-1.45-4.7-2.3-1.48-0.84-2.89-1.76-4.21-2.76-1.31-1-2.54-2.07-3.71-3.21-1.14-1.14-2.2-2.38-3.18-3.68-1.44-1.95-2.93-4.2-4.47-6.77-1.55-2.59-3.15-5.5-4.8-8.73-1.66-3.26-3.37-6.86-5.15-10.78-1.8-3.95-3.62-8.25-5.54-12.91-5.18-12.66-18.14-44.31-38.87-94.94z"/>
<path id="b" d="m148.53 16.88-75.15 3.68c18.25 48.44 28.39 75.36 30.42 80.74 1.33 3.54 2.56 6.74 3.7 9.61 1.16 2.86 2.19 5.38 3.14 7.57 0.93 2.18 1.78 4.04 2.54 5.58 0.75 1.54 1.43 2.76 2 3.65 0.94 1.45 1.98 2.72 3.09 3.87 1.12 1.13 2.31 2.11 3.59 2.96 1.27 0.84 2.62 1.53 4.05 2.07 1.44 0.56 2.96 0.95 4.55 1.22 0.56 0.08 1.15 0.15 1.73 0.2 0.59 0.05 1.18 0.07 1.77 0.07 0.62 0 1.22-0.02 1.83-0.07 0.63-0.05 1.24-0.13 1.88-0.21 1.13-0.17 2.3-0.42 3.49-0.73 1.19-0.32 2.41-0.73 3.65-1.17 1.25-0.48 2.51-1.01 3.79-1.63 1.29-0.62 2.61-1.29 3.96-2.05 2.12-1.2 4.05-2.43 5.83-3.69 1.77-1.27 3.37-2.58 4.8-3.92 1.42-1.32 2.69-2.71 3.78-4.11 1.1-1.41 2.03-2.86 2.79-4.36 0.77-1.48 1.41-2.96 1.92-4.44 0.54-1.48 0.93-2.94 1.2-4.41 0.28-1.47 0.44-2.93 0.47-4.38 0.04-1.46-0.05-2.92-0.27-4.37-0.21-1.45-0.51-3.11-0.92-4.99s-0.92-3.96-1.52-6.27c-0.63-2.32-1.34-4.84-2.14-7.6-0.83-2.77-1.76-5.76-2.78-8.98-2.29-7.18-8.02-25.13-17.19-53.84z"/>
<path id="a" d="m209.05 13.92-25.3 1.23c6.18 21.17 9.62 32.93 10.31 35.28 1.42 4.88 2.69 9.4 3.79 13.55 1.1 4.13 2.05 7.93 2.83 11.36 0.77 3.44 1.39 6.53 1.89 9.3 0.46 2.75 0.79 5.19 0.97 7.3 0.17 2.11 0.25 4.18 0.22 6.23-0.01 2.04-0.14 4.05-0.38 6.01-0.22 1.98-0.56 3.92-0.99 5.83-0.43 1.9-0.95 3.79-1.58 5.65-0.64 1.85-1.37 3.68-2.22 5.49-0.84 1.83-1.78 3.63-2.84 5.41-1.05 1.79-2.19 3.56-3.46 5.31-1.28 1.77-2.65 3.51-4.12 5.25-1.49 1.73-3.12 3.46-4.94 5.17-1.81 1.71-3.79 3.42-5.92 5.1-2.16 1.7-4.46 3.38-6.96 5.05-2.51 1.69-5.17 3.35-8 5.02-1.59 0.93-3.14 1.8-4.67 2.65-1.52 0.82-3 1.62-4.45 2.36-1.46 0.75-2.88 1.45-4.28 2.1-1.39 0.66-2.74 1.27-4.06 1.82 5.7-0.99 51.33-8.89 57.03-9.88 2.25-0.39 4.41-1.28 6.39-2.53 1.97-1.26 3.77-2.91 5.31-4.81 1.54-1.92 2.82-4.09 3.77-6.43 0.93-2.32 1.51-4.82 1.67-7.36 0.58-10.17 5.28-91.53 5.86-101.7 0.16-2.81-0.15-5.47-0.86-7.87-0.72-2.42-1.82-4.57-3.25-6.37s-3.18-3.24-5.17-4.2c-1.99-0.95-4.22-1.44-6.59-1.32"/>
</defs>
<use fill="#00adee" xlink:href="#c"/>
<use fill-opacity="0" stroke="#000000" stroke-opacity="0" xlink:href="#c"/>
<use fill="#e93a26" xlink:href="#b"/>
<use fill-opacity="0" stroke="#000000" stroke-opacity="0" xlink:href="#b"/>
<use fill="#ffc627" xlink:href="#a"/>
<use fill-opacity="0" stroke="#000000" stroke-opacity="0" xlink:href="#a"/>
</svg>

<?xml version="1.0" encoding="UTF-8" standalone="no"?>
<!DOCTYPE svg PUBLIC "-//W3C//DTD SVG 1.1//EN" "http://www.w3.org/Graphics/SVG/1.1/DTD/svg11.dtd">
<svg version="1.1" xmlns="http://www.w3.org/2000/svg" xmlns:xlink="http://www.w3.org/1999/xlink" preserveAspectRatio="xMidYMid meet" viewBox="0 0 230 200" width="230" height="200"><defs><path d="M31.03 22.62C29.03 22.72 27.92 22.77 27.7 22.78C24.5 22.95 21.44 23.79 18.67 25.17C15.9 26.56 13.38 28.49 11.33 30.82C9.26 33.17 7.62 35.91 6.53 38.9C5.44 41.89 4.91 45.13 5.06 48.45C5.59 60.43 9.83 156.21 10.36 168.18C10.5 171.15 11.24 173.87 12.51 176.24C13.75 178.61 15.46 180.64 17.54 182.22C19.62 183.8 22.05 184.94 24.7 185.57C27.32 186.18 30.19 186.28 33.15 185.77C34.84 185.48 43.27 184.01 58.44 181.38L91.74 175.61C106.39 173.08 114.53 171.67 116.16 171.39C115.22 171.28 114.3 171.14 113.39 170.98C112.48 170.81 111.59 170.62 110.72 170.4C109.84 170.18 108.98 169.93 108.14 169.64C107.29 169.36 106.48 169.06 105.66 168.7C104.01 168.01 102.45 167.25 100.96 166.4C99.48 165.56 98.07 164.64 96.75 163.64C95.44 162.64 94.21 161.57 93.04 160.43C91.9 159.29 90.84 158.05 89.86 156.75C88.42 154.8 86.93 152.55 85.39 149.98C83.84 147.39 82.24 144.48 80.59 141.25C78.93 137.99 77.22 134.39 75.44 130.47C73.64 126.52 71.82 122.22 69.9 117.56C64.72 104.9 51.76 73.25 31.03 22.62Z" id="e1nuzu5oGx"></path><path d="M148.53 16.88L73.38 20.56C91.63 69 101.77 95.92 103.8 101.3C105.13 104.84 106.36 108.04 107.5 110.91C108.66 113.77 109.69 116.29 110.64 118.48C111.57 120.66 112.42 122.52 113.18 124.06C113.93 125.6 114.61 126.82 115.18 127.71C116.12 129.16 117.16 130.43 118.27 131.58C119.39 132.71 120.58 133.69 121.86 134.54C123.13 135.38 124.48 136.07 125.91 136.61C127.35 137.17 128.87 137.56 130.46 137.83C131.02 137.91 131.61 137.98 132.19 138.03C132.78 138.08 133.37 138.1 133.96 138.1C134.58 138.1 135.18 138.08 135.79 138.03C136.42 137.98 137.03 137.9 137.67 137.82C138.8 137.65 139.97 137.4 141.16 137.09C142.35 136.77 143.57 136.36 144.81 135.92C146.06 135.44 147.32 134.91 148.6 134.29C149.89 133.67 151.21 133 152.56 132.24C154.68 131.04 156.61 129.81 158.39 128.55C160.16 127.28 161.76 125.97 163.19 124.63C164.61 123.31 165.88 121.92 166.97 120.52C168.07 119.11 169 117.66 169.76 116.16C170.53 114.68 171.17 113.2 171.68 111.72C172.22 110.24 172.61 108.78 172.88 107.31C173.16 105.84 173.32 104.38 173.35 102.93C173.39 101.47 173.3 100.01 173.08 98.56C172.87 97.11 172.57 95.45 172.16 93.57C171.75 91.69 171.24 89.61 170.64 87.3C170.01 84.98 169.3 82.46 168.5 79.7C167.67 76.93 166.74 73.94 165.72 70.72C163.43 63.54 157.7 45.59 148.53 16.88Z" id="hhVqXalkh"></path><path d="M209.05 13.92L183.75 15.15C189.93 36.32 193.37 48.08 194.06 50.43C195.48 55.31 196.75 59.83 197.85 63.98C198.95 68.11 199.9 71.91 200.68 75.34C201.45 78.78 202.07 81.87 202.57 84.64C203.03 87.39 203.36 89.83 203.54 91.94C203.71 94.05 203.79 96.12 203.76 98.17C203.75 100.21 203.62 102.22 203.38 104.18C203.16 106.16 202.82 108.1 202.39 110.01C201.96 111.91 201.44 113.8 200.81 115.66C200.17 117.51 199.44 119.34 198.59 121.15C197.75 122.98 196.81 124.78 195.75 126.56C194.7 128.35 193.56 130.12 192.29 131.87C191.01 133.64 189.64 135.38 188.17 137.12C186.68 138.85 185.05 140.58 183.23 142.29C181.42 144 179.44 145.71 177.31 147.39C175.15 149.09 172.85 150.77 170.35 152.44C167.84 154.13 165.18 155.79 162.35 157.46C160.76 158.39 159.21 159.26 157.68 160.11C156.16 160.93 154.68 161.73 153.23 162.47C151.77 163.22 150.35 163.92 148.95 164.57C147.56 165.23 146.21 165.84 144.89 166.39C150.59 165.4 196.22 157.5 201.92 156.51C204.17 156.12 206.33 155.23 208.31 153.98C210.28 152.72 212.08 151.07 213.62 149.17C215.16 147.25 216.44 145.08 217.39 142.74C218.32 140.42 218.9 137.92 219.06 135.38C219.64 125.21 224.34 43.85 224.92 33.68C225.08 30.87 224.77 28.21 224.06 25.81C223.34 23.39 222.24 21.24 220.81 19.44C219.38 17.64 217.63 16.2 215.64 15.24C213.65 14.29 211.42 13.8 209.05 13.92" id="j5t2RDP2P"></path></defs><g><g><g><g><use xlink:href="#e1nuzu5oGx" opacity="1" fill="#00adee" fill-opacity="1"></use><g><use xlink:href="#e1nuzu5oGx" opacity="1" fill-opacity="0" stroke="#000000" stroke-width="1" stroke-opacity="0"></use></g></g><g><use xlink:href="#hhVqXalkh" opacity="1" fill="#e93a26" fill-opacity="1"></use><g><use xlink:href="#hhVqXalkh" opacity="1" fill-opacity="0" stroke="#000000" stroke-width="1" stroke-opacity="0"></use></g></g><g><use xlink:href="#j5t2RDP2P" opacity="1" fill="#ffc627" fill-opacity="1"></use><g><use xlink:href="#j5t2RDP2P" opacity="1" fill-opacity="0" stroke="#000000" stroke-width="1" stroke-opacity="0"></use></g></g></g></g></g></svg>
